public/avatar/shoe/40.svg

<svg xmlns:xlink="http://www.w3.org/1999/xlink" height="38.3" width="36.05" xmlns="http://www.w3.org/2000/svg"><use height="15.4" transform="translate(8.4 12.6)" width="23.1" xlink:href="#a"/><defs><g id="a"><path d="M3.25-.8q-.35-.8-1.5-1.1-2.55-.5-4.85.1-1.4.25-3.95 3.7l-1.1 1.4Q-9.3 6.15-9.1 6.6l4.7.2 7.6-4.95Q3.55-.2 3.25-.8" fill="#fff" fill-rule="evenodd" transform="translate(15.4 2.25)"/><path d="M5.65-.1Q7.1 1.95 7.2 3.85q0 1.9-.55 3.1l.2 1.3-1.55.95-1.4-.55.65-3.15L3.4 7.7q-1.3 2.25-2.15 2.7-3.4 1.7-9.5 2.2-3.55.2-5.45-.6-1.3-1.25-1.2-2.15.05-.7 3.3-3.5l2.95-2.9 2.35-2.4Q-8.5 5.1-7.85 5.1-6.15 5.05-.6 2L2.3.15l.15-1.8q1.9-.55 3.2 1.55" fill="#e80000" fill-rule="evenodd" transform="translate(15.4 2.25)"/><path d="M2.45-1.65q1.9-.55 3.2 1.55Q7.1 1.95 7.2 3.85q0 1.9-.55 3.1l.2 1.3-1.55.95-1.4-.55.65-3.15L3.4 7.7q-1.3 2.25-2.15 2.7-3.4 1.7-9.5 2.2-3.55.2-5.45-.6-1.3-1.25-1.2-2.15.05-.7 3.3-3.5l2.95-2.9 1.8-2.35" fill="none" stroke="#300" stroke-linecap="round" stroke-linejoin="round" transform="translate(15.4 2.25)"/><path d="m3.05-1.6-5.75.35Q-5.65-.3-7 1.4" fill="none" stroke="#cc5757" stroke-linecap="round" stroke-linejoin="round" transform="translate(15.4 2.25)"/></g></defs></svg>

<?xml version="1.0" encoding="UTF-8" standalone="no"?>
<svg xmlns:xlink="http://www.w3.org/1999/xlink" height="38.3px" width="36.05px" xmlns="http://www.w3.org/2000/svg">
  <g transform="matrix(1.0, 0.0, 0.0, 1.0, 23.8, 14.85)">
    <use height="15.4" transform="matrix(1.0, 0.0, 0.0, 1.0, -15.4, -2.25)" width="23.1" xlink:href="#shape0"/>
  </g>
  <defs>
    <g id="shape0" transform="matrix(1.0, 0.0, 0.0, 1.0, 15.4, 2.25)">
      <path d="M3.25 -0.8 Q2.9 -1.6 1.75 -1.9 -0.8 -2.4 -3.1 -1.8 -4.5 -1.55 -7.05 1.9 L-8.15 3.3 Q-9.3 6.15 -9.1 6.6 L-4.4 6.8 3.2 1.85 Q3.55 -0.2 3.25 -0.8" fill="#ffffff" fill-rule="evenodd" stroke="none"/>
      <path d="M5.65 -0.1 Q7.1 1.95 7.2 3.85 7.2 5.75 6.65 6.95 L6.85 8.25 5.3 9.2 3.9 8.65 4.55 5.5 3.4 7.7 Q2.1 9.95 1.25 10.4 -2.15 12.1 -8.25 12.6 -11.8 12.8 -13.7 12.0 -15.0 10.75 -14.9 9.85 -14.85 9.15 -11.6 6.35 L-8.65 3.45 -6.3 1.05 Q-8.5 5.1 -7.85 5.1 -6.15 5.05 -0.6 2.0 L2.3 0.15 2.45 -1.65 Q4.35 -2.2 5.65 -0.1" fill="#e80000" fill-rule="evenodd" stroke="none"/>
      <path d="M2.45 -1.65 Q4.35 -2.2 5.65 -0.1 7.1 1.95 7.2 3.85 7.2 5.75 6.65 6.95 L6.85 8.25 5.3 9.2 3.9 8.65 4.55 5.5 3.4 7.7 Q2.1 9.95 1.25 10.4 -2.15 12.1 -8.25 12.6 -11.8 12.8 -13.7 12.0 -15.0 10.75 -14.9 9.85 -14.85 9.15 -11.6 6.35 L-8.65 3.45 -6.85 1.1" fill="none" stroke="#330000" stroke-linecap="round" stroke-linejoin="round" stroke-width="1.0"/>
      <path d="M3.05 -1.6 L-2.7 -1.25 Q-5.65 -0.3 -7.0 1.4" fill="none" stroke="#cc5757" stroke-linecap="round" stroke-linejoin="round" stroke-width="1.0"/>
    </g>
  </defs>
</svg>
